icons/ct_about.svg

<?xml version="1.0" encoding="UTF-8" standalone="no"?>
<svg
   xmlns:dc="http://purl.org/dc/elements/1.1/"
   xmlns:cc="http://creativecommons.org/ns#"
   xmlns:rdf="http://www.w3.org/1999/02/22-rdf-syntax-ns#"
   xmlns:svg="http://www.w3.org/2000/svg"
   xmlns="http://www.w3.org/2000/svg"
   xmlns:xlink="http://www.w3.org/1999/xlink"
   id="svg3880"
   height="48"
   width="48"
   version="1.1">
  <defs
     id="defs3882">
    <linearGradient
       id="linearGradient849">
      <stop
         id="stop845"
         offset="0"
         style="stop-color:#ffe16b;stop-opacity:1" />
      <stop
         id="stop847"
         offset="1"
         style="stop-color:#f9c440;stop-opacity:1" />
    </linearGradient>
    <linearGradient
       gradientTransform="translate(2.9799125,-3.1216548)"
       gradientUnits="userSpaceOnUse"
       xlink:href="#linearGradient8265-821-176-38-919-66-249"
       id="linearGradient3619"
       y2="33.95525"
       x2="15.214532"
       y1="22.292103"
       x1="11.566265" />
    <linearGradient
       id="linearGradient8265-821-176-38-919-66-249">
      <stop
         offset="0"
         style="stop-color:#ffffff;stop-opacity:0.27450982"
         id="stop2687" />
      <stop
         offset="1"
         style="stop-color:#ffffff;stop-opacity:0"
         id="stop2689" />
    </linearGradient>
    <linearGradient
       gradientUnits="userSpaceOnUse"
       xlink:href="#linearGradient3881"
       id="linearGradient3648"
       y2="43.443626"
       x2="29.646643"
       y1="2"
       x1="29.646643" />
    <linearGradient
       id="linearGradient3881">
      <stop
         offset="0"
         style="stop-color:#ffffff;stop-opacity:1"
         id="stop3883" />
      <stop
         offset="0.33380178"
         style="stop-color:#ffffff;stop-opacity:0.23529412"
         id="stop3885" />
      <stop
         offset="0.67927718"
         style="stop-color:#ffffff;stop-opacity:0.15686275"
         id="stop3887" />
      <stop
         offset="1"
         style="stop-color:#ffffff;stop-opacity:0.39215687"
         id="stop3889" />
    </linearGradient>
    <linearGradient
       id="linearGradient8838">
      <stop
         offset="0"
         style="stop-color:#000000;stop-opacity:1"
         id="stop8840" />
      <stop
         offset="1"
         style="stop-color:#000000;stop-opacity:0"
         id="stop8842" />
    </linearGradient>
    <radialGradient
       gradientTransform="matrix(2.1647059,0,0,0.84705771,-111.56471,35.082353)"
       gradientUnits="userSpaceOnUse"
       xlink:href="#linearGradient8838"
       id="radialGradient3878"
       fy="4.625"
       fx="62.625"
       r="10.625"
       cy="4.625"
       cx="62.625" />
    <linearGradient
       gradientUnits="userSpaceOnUse"
       y2="45.013279"
       x2="23.999998"
       y1="1.4961348"
       x1="23.999998"
       id="linearGradient851"
       xlink:href="#linearGradient849" />
  </defs>
  <metadata
     id="metadata3885">
    <rdf:RDF>
      <cc:Work
         rdf:about="">
        <dc:format>image/svg+xml</dc:format>
        <dc:type
           rdf:resource="http://purl.org/dc/dcmitype/StillImage" />
        <dc:title />
      </cc:Work>
    </rdf:RDF>
  </metadata>
  <path
     d="m 47,39 c 0,4.970563 -10.297453,9 -23,9 -12.702548,0 -23,-4.029437 -23,-9 0,-4.970563 10.297452,-9 23,-9 12.702547,0 23,4.029437 23,9 z"
     id="path8836"
     style="display:inline;overflow:visible;visibility:visible;opacity:0.3;fill:url(#radialGradient3878);fill-opacity:1;fill-rule:evenodd;stroke:none;stroke-width:0.99999988;marker:none" />
  <path
     d="m 23.999999,1.4961347 c 1.518797,0 6.415369,12.2754723 7.644103,13.1714173 1.228732,0.895944 14.374596,1.776317 14.843931,3.225986 0.469334,1.449669 -9.650283,9.916699 -10.119617,11.366368 -0.469334,1.449669 2.758685,14.269241 1.529951,15.165186 -1.228733,0.895944 -12.379571,-6.146615 -13.89837,-6.146615 -1.518797,0 -12.669635,7.042559 -13.898369,6.146615 C 8.8728956,43.529147 12.100914,30.709574 11.63158,29.259906 11.162246,27.810237 1.0426298,19.343205 1.5119642,17.893536 1.9812985,16.443869 15.127162,15.563496 16.355896,14.667552 17.584628,13.771607 22.481202,1.4961347 23.999999,1.4961347 Z"
     id="path1307"
     style="display:inline;overflow:visible;visibility:visible;fill:url(#linearGradient851);fill-opacity:1;fill-rule:nonzero;stroke:#ad5f00;stroke-width:0.9922713;stroke-linecap:butt;stroke-linejoin:round;stroke-miterlimit:4;stroke-dasharray:none;stroke-dashoffset:0;stroke-opacity:0.49803922;marker:none" />
  <path
     d="m 24,2.5 c 2.255601,4.3171106 4.478429,8.952433 6.73403,13.269542 4.843973,0.789864 10.26201,1.380836 14.771263,2.50542 -3.449934,3.457984 -6.875961,7.131147 -10.325895,10.589132 0.738138,4.805274 1.300453,9.696699 2.038592,14.501973 C 32.830213,41.18611 28.355003,39.093584 23.967226,36.913625 19.579447,39.093584 15.19167,41.273542 10.803892,43.453499 11.542029,38.648225 11.929163,33.581617 12.6673,28.776343 9.2173666,25.318358 5.9355586,21.692246 2.4856257,18.234262 7.329597,17.444398 12.356449,16.559406 17.20042,15.769542 19.456021,11.452433 21.744398,6.8171106 24,2.5 Z"
     id="path1309"
     style="display:inline;overflow:visible;visibility:visible;opacity:0.8;fill:none;stroke:url(#linearGradient3648);stroke-width:0.99999994;stroke-linecap:butt;stroke-linejoin:round;stroke-miterlimit:4;stroke-dasharray:none;stroke-dashoffset:0;stroke-opacity:1;marker:none" />
  <path
     d="m 24.023909,2.0218291 c 0,0 4.502337,7.4701031 7.020932,13.3173589 4.843973,0.789864 10.309827,1.404745 14.914715,2.720597 0,0 -2.463879,2.468624 -3.480641,3.487759 0,0 -31.782299,5.712288 -31.782299,5.712288 C 7.7999341,24.283482 4.5120994,21.39468 1.9615429,18.048297 5.5144527,16.97153 12.093455,16.105144 16.937426,15.31528 20.29282,7.4118887 24.023909,2.0218291 24.023909,2.0218291 Z"
     id="path3382"
     style="display:inline;overflow:visible;visibility:visible;opacity:0.8;fill:url(#linearGradient3619);fill-opacity:1;fill-rule:nonzero;stroke:none;stroke-width:1;marker:none;enable-background:accumulate" />
</svg>

<?xml version="1.0" encoding="UTF-8"?>
<!-- Created with Inkscape (http://www.inkscape.org/) -->
<svg id="svg3692" width="48px" height="48px" version="1.1" xmlns="http://www.w3.org/2000/svg" xmlns:cc="http://creativecommons.org/ns#" xmlns:dc="http://purl.org/dc/elements/1.1/" xmlns:rdf="http://www.w3.org/1999/02/22-rdf-syntax-ns#" xmlns:xlink="http://www.w3.org/1999/xlink">
 <defs id="defs3694">
  <linearGradient id="linearGradient3619" x1="11.566" x2="15.215" y1="22.292" y2="33.955" gradientTransform="translate(2.9799 -3.1217)" gradientUnits="userSpaceOnUse">
   <stop id="stop2687" style="stop-color:#fff;stop-opacity:.27451" offset="0"/>
   <stop id="stop2689" style="stop-color:#fff;stop-opacity:0" offset="1"/>
  </linearGradient>
  <linearGradient id="linearGradient3648" x1="29.647" x2="29.647" y1="2" y2="43.444" gradientUnits="userSpaceOnUse">
   <stop id="stop3644" style="stop-color:#fff" offset="0"/>
   <stop id="stop3646" style="stop-color:#fff;stop-opacity:0" offset="1"/>
  </linearGradient>
  <radialGradient id="radialGradient3627" cx="13.139" cy="25.625" r="13.931" gradientTransform="matrix(0 2.6541 -3.1628 0 97.183 -26.676)" gradientUnits="userSpaceOnUse">
   <stop id="stop3692" style="stop-color:#ffeb9f" offset="0"/>
   <stop id="stop3694" style="stop-color:#ffd57e" offset=".26238"/>
   <stop id="stop3696" style="stop-color:#ffbc43" offset=".66094"/>
   <stop id="stop3698" style="stop-color:#ff921a" offset="1"/>
  </radialGradient>
  <linearGradient id="linearGradient3629" x1="21.483" x2="21.483" y1="36.255" y2="9.58" gradientTransform="matrix(1.6509 0 0 1.6568 -11.466 -15.046)" gradientUnits="userSpaceOnUse">
   <stop id="stop3605" style="stop-color:#a7651c" offset="0"/>
   <stop id="stop3607" style="stop-color:#c8a700" offset="1"/>
  </linearGradient>
  <radialGradient id="radialGradient3690" cx="62.625" cy="4.625" r="10.625" gradientTransform="matrix(2.1647 0 0 .84706 -111.56 35.082)" gradientUnits="userSpaceOnUse">
   <stop id="stop8840" offset="0"/>
   <stop id="stop8842" style="stop-opacity:0" offset="1"/>
  </radialGradient>
 </defs>
 <metadata id="metadata3697">
  <rdf:RDF>
   <cc:Work rdf:about="">
    <dc:format>image/svg+xml</dc:format>
    <dc:type rdf:resource="http://purl.org/dc/dcmitype/StillImage"/>
    <dc:title/>
   </cc:Work>
  </rdf:RDF>
 </metadata>
 <g id="layer1">
  <path id="path8836" d="m47 39c0 4.9706-10.297 9-23 9-12.703 0-23-4.0294-23-9s10.297-9 23-9c12.703 0 23 4.0294 23 9z" style="fill-rule:evenodd;fill:url(#radialGradient3690);opacity:.3"/>
  <path id="path1307" d="m24 1.4961c1.5188 0 6.4154 12.275 7.6441 13.171 1.2287 0.89594 14.375 1.7763 14.844 3.226 0.46933 1.4497-9.6503 9.9167-10.12 11.366s2.7587 14.269 1.53 15.165c-1.2287 0.89594-12.38-6.1466-13.898-6.1466-1.5188 0-12.67 7.0426-13.898 6.1466-1.2287-0.89594 1.9993-13.716 1.53-15.165-0.46933-1.4497-10.589-9.9167-10.12-11.366 0.46933-1.4497 13.615-2.33 14.844-3.226 1.2287-0.89594 6.1253-13.171 7.6441-13.171z" style="fill:url(#radialGradient3627);stroke-linejoin:round;stroke-width:.99227;stroke:url(#linearGradient3629)"/>
  <path id="path11014" d="m36.458 42.855s-4.3184-3.7426-10.076-4.8942" style="fill:none;opacity:.3;stroke:#fff"/>
  <path id="path11985" d="m11.176 42.855s4.3184-3.7426 10.076-4.8942" style="fill:none;opacity:.3;stroke:#fff"/>
  <path id="path1309" d="m24 2.5c2.2556 4.3171 4.4784 8.9524 6.734 13.27 4.844 0.78986 10.262 1.3808 14.771 2.5054-3.4499 3.458-6.876 7.1311-10.326 10.589 0.73814 4.8053 1.213 9.2595 1.9512 14.065-4.3878-2.18-8.7756-4.3599-13.163-6.5399-4.3878 2.18-8.7756 4.3599-13.163 6.5399 0.73814-4.8053 1.1253-9.3473 1.8634-14.153-3.4499-3.458-6.7317-7.0841-10.182-10.542 4.844-0.78986 9.8708-1.6749 14.715-2.4647 2.2556-4.3171 4.544-8.9524 6.7996-13.27z" style="fill:none;opacity:.4;stroke-linejoin:round;stroke:url(#linearGradient3648)"/>
  <path id="path3382" d="m24.024 2.0218s4.5023 7.4701 7.0209 13.317c4.844 0.78986 10.31 1.4047 14.915 2.7206 0 0-2.4639 2.4686-3.4806 3.4878 0 0-31.782 5.7123-31.782 5.7123-2.8967-2.9764-6.1845-5.8652-8.7351-9.2115 3.5529-1.0768 10.132-1.9432 14.976-2.733 3.3554-7.9034 7.0865-13.293 7.0865-13.293z" style="fill:url(#linearGradient3619);opacity:.8"/>
 </g>
</svg>
